src/standard/firewall-a.svg

<svg xmlns="http://www.w3.org/2000/svg" viewBox="0 0 36 36">
  <path d="m31.13 17.39-5.5-1.17a.57.57 0 0 0-.26 0l-5.5 1.17a.62.62 0 0 0-.49.61v6.5c.28 8.1 12 8.11 12.25 0V18a.62.62 0 0 0-.5-.61Zm-.75 7.11c-.21 6.44-9.55 6.44-9.76 0v-6l4.88-1 4.88 1Z"/>
  <path d="M24.17 23.15a.63.63 0 0 0-.88.89l1.06 1.06a.63.63 0 0 0 .88 0l2.48-2.48a.63.63 0 0 0-.88-.89l-2 2Z"/>
  <path d="M31 5.38H5a.61.61 0 0 0-.62.62v24a.62.62 0 0 0 .62.62h14a.62.62 0 0 0 0-1.24h-6.38v-4.76H17a.62.62 0 0 0 0-1.24H5.62v-4.76H17a.62.62 0 0 0 0-1.24h-4.38v-4.76h17.76V15a.62.62 0 0 0 1.24 0V6a.61.61 0 0 0-.62-.62Zm-25.38 6V6.62h13.76v4.76Zm5.76 13.24v4.76H5.62v-4.76Zm0-7.24H5.62v-4.76h5.76Zm9.24-6V6.62h9.76v4.76Z"/>
</svg>

<svg xmlns="http://www.w3.org/2000/svg" viewBox="0 0 36 36">
  <title>Firewall icon - Black</title>
<desc>secured, protected, bricks, shield, defend, block, internal, IT, information, software and technologies</desc>
<metadata><?xpacket begin="﻿" id="W5M0MpCehiHzreSzNTczkc9d"?>
<x:xmpmeta xmlns:x="adobe:ns:meta/" x:xmptk="Adobe XMP Core 8.0-c001 1.000000, 0000/00/00-00:00:00        ">
   <rdf:RDF xmlns:rdf="http://www.w3.org/1999/02/22-rdf-syntax-ns#">
      <rdf:Description rdf:about=""
            xmlns:xmp="http://ns.adobe.com/xap/1.0/"
            xmlns:dc="http://purl.org/dc/elements/1.1/"
            xmlns:cq="http://www.day.com/jcr/cq/1.0"
            xmlns:tiff="http://ns.adobe.com/tiff/1.0/">
         <xmp:rhcc-effective-on>2023-12-08T17:43:23.751Z</xmp:rhcc-effective-on>
         <xmp:rhcc-metadata-complete-moderator>pending</xmp:rhcc-metadata-complete-moderator>
         <xmp:rhcc-translation-id>TRA7952c7f3-92ab-4873-a63a-21a4cbb9ac2f</xmp:rhcc-translation-id>
         <xmp:brand-content-type>Icon</xmp:brand-content-type>
         <xmp:CreateDate>2023-12-08T17:43:23.751Z</xmp:CreateDate>
         <xmp:rhcc-effective-on-set-on-upload>true</xmp:rhcc-effective-on-set-on-upload>
         <xmp:rhcc-metadata-complete-uploader>pending</xmp:rhcc-metadata-complete-uploader>
         <xmp:rhcc-file-last-modified>2023-12-08T17:44:11.299Z</xmp:rhcc-file-last-modified>
         <xmp:rhcc-audience>rhcc-audience:internal</xmp:rhcc-audience>
         <xmp:rhcc-rights-restricted>no</xmp:rhcc-rights-restricted>
         <xmp:brand-content-subtype>Icon</xmp:brand-content-subtype>
         <xmp:rhcc-derivative-id>DER7952c7f3-92ab-4873-a63a-21a4cbb9ac2f</xmp:rhcc-derivative-id>
         <xmp:brand-logo-color>Black</xmp:brand-logo-color>
         <xmp:rhcc-notify-portal-subscribers-on-change>yes</xmp:rhcc-notify-portal-subscribers-on-change>
         <dc:format>image/svg+xml</dc:format>
         <dc:modified>2024-02-09T20:17:11.711Z</dc:modified>
         <dc:title>
            <rdf:Alt>
               <rdf:li xml:lang="x-default">Firewall icon - Black</rdf:li>
            </rdf:Alt>
         </dc:title>
         <dc:description>
            <rdf:Alt>
               <rdf:li xml:lang="x-default">secured, protected, bricks, shield, defend, block, internal, IT, information, software and technologies</rdf:li>
            </rdf:Alt>
         </dc:description>
         <cq:lastReplicationAction_scene7>Activate</cq:lastReplicationAction_scene7>
         <cq:lastReplicationAction_publish>Activate</cq:lastReplicationAction_publish>
         <cq:lastReplicated_publish>2024-02-09T21:54:25.413Z</cq:lastReplicated_publish>
         <cq:lastReplicatedBy>workflow-process-service</cq:lastReplicatedBy>
         <cq:lastReplicationAction>Activate</cq:lastReplicationAction>
         <cq:lastReplicatedBy_publish>workflow-process-service</cq:lastReplicatedBy_publish>
         <cq:isDelivered>true</cq:isDelivered>
         <cq:lastReplicated>2024-02-09T21:54:25.413Z</cq:lastReplicated>
         <cq:lastReplicatedBy_scene7>workflow-process-service</cq:lastReplicatedBy_scene7>
         <cq:lastReplicated_scene7>2024-02-09T21:54:25.413Z</cq:lastReplicated_scene7>
         <tiff:ImageLength>36</tiff:ImageLength>
         <tiff:ImageWidth>36</tiff:ImageWidth>
      </rdf:Description>
   </rdf:RDF>
</x:xmpmeta>
                                                                                                    
                                                                                                    
                                                                                                    
                                                                                                    
                                                                                                    
                                                                                                    
                                                                                                    
                                                                                                    
                                                                                                    
                                                                                                    
                                 
<?xpacket end="w"?></metadata>
<g id="f869bd9d-d188-4b06-8491-cc37b3b243cd" data-name="Guidelines">
    <g>
      <path d="M31.13,17.39l-5.5-1.17a.57.57,0,0,0-.26,0l-5.5,1.17a.62.62,0,0,0-.49.61v6.5c.28,8.1,12,8.11,12.25,0V18A.62.62,0,0,0,31.13,17.39Zm-.75,7.11c-.21,6.44-9.55,6.44-9.76,0v-6l4.88-1,4.88,1Z"/>
      <path d="M24.17,23.15a.63.63,0,0,0-.88.89l1.06,1.06a.63.63,0,0,0,.88,0l2.48-2.48a.63.63,0,0,0-.88-.89l-2,2Z"/>
      <path d="M31,5.38H5A.61.61,0,0,0,4.38,6V30a.62.62,0,0,0,.62.62H19a.62.62,0,0,0,0-1.24H12.62V24.62H17a.62.62,0,0,0,0-1.24H5.62V18.62H17a.62.62,0,0,0,0-1.24H12.62V12.62H30.38V15a.62.62,0,0,0,1.24,0V6A.61.61,0,0,0,31,5.38Zm-25.38,6V6.62H19.38v4.76Zm5.76,13.24v4.76H5.62V24.62Zm0-7.24H5.62V12.62h5.76Zm9.24-6V6.62h9.76v4.76Z"/>
    </g>
  </g>
</svg>
